X:1
T:George Collins (2)
M:6/8
L:1/8
K:G
 G| ddG d2 B| G2 c c2 B| Gdd d2 d| A3- A2 D| G2 A B2 c| d2B/2-A/2 G2 A|\
 BBc AGA| G3- G2||
